X: 46
M: 6/8
L: 1/8
K: D
d3 d2e | [f3A3] e2d | B2c d2B | A2F D2z |
d3 d2e | f3 e2d | B2d e2f | e3- e2A |
d3 d2e | f3 e2d | B2d e2B | A2F D2z |


